components/brave_wallet_ui/page/screens/swap/assets/lp-icons/aldrin.svg

<svg width="20" height="20" viewBox="0 0 20 20" fill="inherit" xmlns="http://www.w3.org/2000/svg">
    <path
      d="M15.4892 10.8813L15.4042 11.9374L15.2546 12.9863L15.0407 14.0236L15.0325 14.0532L15.0226 14.0824L15.0111 14.1107L14.9978 14.1386L14.9828 14.1653L14.966 14.191L14.9479 14.2158L14.9282 14.2393L14.9072 14.2614L14.8848 14.2823L14.861 14.3018L14.8362 14.3196L14.8104 14.336L14.289 14.6212L13.7511 14.8732L13.1987 15.091L12.634 15.274L12.0592 15.421L11.4764 15.5319L10.8879 15.6061L10.3064 15.6411L10.296 15.6432H9.99958H9.70309L9.69284 15.6411L9.1112 15.6061L8.52274 15.5319L7.9401 15.421L7.3651 15.274L6.80057 15.091L6.24801 14.8732L5.71013 14.6212L5.1887 14.336L5.16305 14.3196L5.13808 14.3018L5.11433 14.2823L5.0921 14.2614L5.07091 14.2393L5.05125 14.2158L5.0331 14.191L5.01635 14.1653L5.00132 14.1386L4.98799 14.1107L4.97653 14.0824L4.96659 14.0532L4.95839 14.0236L4.74452 12.9863L4.59491 11.9374L4.50994 10.8813L4.49014 9.82182L4.53542 8.76315L4.6457 7.70946L4.82062 6.66465L4.82727 6.636L4.83547 6.60755L4.8425 6.58797L4.84541 6.57968L4.85701 6.55258L4.87034 6.52627L5.06201 6.1951L5.27453 5.87736L5.5072 5.57425L5.75888 5.28711L5.86538 5.18041L6.0285 5.01705L6.31504 4.76544L6.61696 4.5329L6.93342 4.32088L7.26286 4.13003L7.6038 3.96126L7.95495 3.81537L8.31465 3.69275L8.68173 3.59396L9.05411 3.51958L9.43074 3.4696L9.80963 3.4448H9.99958H10.1895L10.5684 3.4696L10.945 3.51958L11.3176 3.59396L11.6845 3.69275L12.0443 3.81537L12.3953 3.96126L12.7363 4.13003L13.0657 4.32088L13.3822 4.5329L13.6841 4.76544L13.9706 5.01705L14.1337 5.18041L14.2402 5.28711L14.4919 5.57425L14.7246 5.87736L14.9371 6.1951L15.129 6.52627L15.1421 6.55258L15.1537 6.57968L15.1568 6.58797L15.1636 6.60755L15.172 6.636L15.1787 6.66465L15.3534 7.70946L15.4639 8.76315L15.509 9.82182L15.4892 10.8813ZM17.6321 8.78296L17.623 8.69223L17.609 8.60267L17.5899 8.51384L17.5657 8.42661L17.5365 8.34125L17.5025 8.25803L17.4639 8.1771L17.4208 8.09906L17.3734 8.02393L17.3216 7.95223L17.2658 7.88419L17.2065 7.82001L17.1435 7.76003L17.0771 7.70429L17.0079 7.65314L16.9097 7.58992L16.8844 7.57128L16.8605 7.55108L16.8376 7.5292L16.8159 7.50592L16.7957 7.48133L16.7769 7.45517L16.7598 7.42788L16.7441 7.39943L16.73 7.37004L16.7177 7.33987L16.7071 7.30893L16.6319 7.08924L16.5437 6.8755L16.4426 6.6685L16.3296 6.46897L16.2048 6.27793L16.0689 6.09611L15.922 5.92446L15.7654 5.76378L15.5996 5.61423L15.5782 5.59519L15.5577 5.57484L15.5384 5.55331L15.5204 5.53062L15.5034 5.5068L15.4876 5.482L15.4732 5.45623L15.2635 5.08357L15.0318 4.72624L14.78 4.38565L14.5087 4.06312L14.2187 3.76021L13.9118 3.47785L13.589 3.21741L13.2515 2.98004L12.9009 2.76631L12.5384 2.57756L12.1656 2.4142L11.7839 2.27714L11.395 2.16683L11.0004 2.08361L10.6017 2.02787L10.2005 2H9.99958H9.79865L9.3974 2.02787L8.99871 2.08361L8.60411 2.16683L8.21518 2.27714L7.83373 2.4142L7.4607 2.57756L7.09823 2.76631L6.74759 2.98004L6.41008 3.21741L6.08729 3.47785L5.78042 3.76021L5.49062 4.06312L5.21931 4.38565L4.96728 4.72624L4.73579 5.08357L4.52587 5.45623L4.5115 5.482L4.49575 5.5068L4.47885 5.53062L4.46071 5.55331L4.44156 5.57484L4.42124 5.59519L4.39967 5.61423L4.23368 5.76378L4.07708 5.92446L3.93055 6.09611L3.79445 6.27793L3.66949 6.46897L3.55648 6.6685L3.45541 6.8755L3.36736 7.08924L3.29199 7.30893L3.28153 7.33987L3.26907 7.37004L3.25505 7.39943L3.2395 7.42788L3.22222 7.45517L3.20359 7.48133L3.18324 7.50592L3.1617 7.5292L3.13878 7.55108L3.11468 7.57128L3.08954 7.58992L2.99125 7.65314L2.922 7.70429L2.85566 7.76003L2.79258 7.82001L2.73344 7.88419L2.67752 7.95223L2.6259 8.02393L2.57836 8.09906L2.53529 8.1771L2.49665 8.25803L2.46279 8.34125L2.43353 8.42661L2.40926 8.51384L2.39011 8.60267L2.37609 8.69223L2.36705 8.78296L2.36328 8.87385L2.36449 8.96498L2.53595 13.1229L2.54042 13.1862L2.54845 13.2493L2.55991 13.3117L2.57476 13.373L2.59308 13.4334L2.61496 13.4924L2.63992 13.55L2.66811 13.6056L2.69941 13.6594L2.76557 13.759L2.83704 13.8541L2.9138 13.9443L2.99551 14.0292L3.08169 14.1086L3.17212 14.1822L3.29182 14.2678L3.31591 14.2873L3.33901 14.3087L3.36072 14.3314L3.38104 14.3556L3.40001 14.3809L3.41781 14.4076L3.43353 14.4355L3.44807 14.4644L3.46088 14.4939L3.59477 14.8651L3.73614 15.197C3.84129 15.4096 6.2085 17.3697 6.2085 17.3697C6.2085 17.3697 7.43743 18 9.99958 18C12.5617 18 13.7906 17.3697 13.7906 17.3697C13.7906 17.3697 16.1578 15.4096 16.263 15.197L16.4045 14.8651L16.5384 14.4939L16.551 14.4644L16.5656 14.4355L16.5815 14.4076L16.5991 14.3809L16.6181 14.3556L16.6386 14.3314L16.6603 14.3087L16.6832 14.2873L16.7073 14.2678L16.827 14.1822L16.9174 14.1086L17.0036 14.0292L17.0853 13.9443L17.1621 13.8541L17.2335 13.759L17.2997 13.6594L17.331 13.6056L17.3592 13.55L17.3842 13.4924L17.406 13.4334L17.4244 13.373L17.4392 13.3117L17.4508 13.2493L17.4589 13.1862L17.4632 13.1229L17.6346 8.96498L17.636 8.87385L17.6321 8.78296Z"
      fill="inherit"
    />
    <path
      d="M12.8063 10.8231H12.0833C11.9929 10.8231 11.9195 10.9058 11.9195 11.0074V11.5677C11.9195 11.6698 11.8834 11.7678 11.8192 11.8401L11.7731 11.8918C11.7089 11.964 11.6217 12.0044 11.5309 12.0044H8.4687C8.37792 12.0044 8.2907 11.964 8.22644 11.8918L8.18043 11.8401C8.11617 11.7678 8.08009 11.6698 8.08009 11.5677V11.0074C8.08009 10.9058 8.00672 10.8231 7.91611 10.8231H7.19327C7.10284 10.8231 7.0293 10.9058 7.0293 11.0074V11.8201C7.0293 11.922 7.10284 12.0044 7.19327 12.0044H7.73763C7.82841 12.0044 7.91559 12.045 7.97989 12.1172C8.04418 12.1895 8.08009 12.2875 8.08009 12.3896V12.9841C8.08009 13.095 8.16076 13.1857 8.25944 13.1857H8.25992H11.7397H11.74C11.8388 13.1857 11.9195 13.095 11.9195 12.9841V12.3896C11.9195 12.2875 11.9554 12.1895 12.0197 12.1172C12.084 12.045 12.1712 12.0044 12.262 12.0044H12.8063C12.8967 12.0044 12.9703 11.922 12.9703 11.8201V11.0074C12.9703 10.9058 12.8967 10.8231 12.8063 10.8231Z"
      fill="inherit"
    />
  </svg>

<svg xmlns="http://www.w3.org/2000/svg" width="20" height="20" fill="inherit"><path d="m15.49 10.881-.086 1.056-.15 1.05-.213 1.037-.008.03-.01.028-.012.029-.013.028-.015.026-.017.026-.018.025-.02.023-.02.022-.023.021-.024.02-.025.018-.026.016-.521.285-.538.252-.552.218-.565.183-.575.147-.583.11-.588.075-.582.035-.01.002h-.593l-.01-.002-.582-.035-.588-.074-.583-.111-.575-.147-.564-.183-.553-.218-.538-.252-.521-.285-.026-.016-.025-.018-.024-.02-.022-.02-.021-.023-.02-.023-.018-.025-.017-.026-.015-.026-.013-.028-.011-.029-.01-.029-.009-.03-.213-1.037-.15-1.049-.085-1.056-.02-1.06.045-1.058.11-1.054.176-1.044.006-.029.008-.028.008-.02.002-.008.012-.027.013-.027.192-.33.213-.319.232-.303.252-.287.106-.107.163-.163.287-.252.302-.232.316-.212.33-.191.34-.169.352-.146.36-.122.367-.099.372-.074.377-.05.379-.025h.38l.378.025.377.05.373.074.367.099.36.122.35.146.341.169.33.19.316.213.302.232.287.252.163.163.106.107.252.287.233.303.212.318.192.331.013.027.012.027.003.008.007.02.008.028.007.029.174 1.044.11 1.054.046 1.059-.02 1.06Zm2.142-2.098-.009-.09-.014-.09-.02-.09-.023-.086-.03-.086-.034-.083-.038-.08-.043-.079-.048-.075-.051-.072-.056-.068-.06-.064-.063-.06-.066-.056-.07-.05-.097-.064-.026-.019-.024-.02-.022-.022-.022-.023-.02-.025-.02-.026-.016-.027-.016-.029-.014-.029-.012-.03-.01-.031-.076-.22-.088-.214-.101-.207-.113-.199-.125-.191-.136-.182-.147-.172-.157-.16-.165-.15-.022-.019-.02-.02-.02-.022-.018-.022-.017-.024-.015-.025-.015-.026-.21-.372-.231-.358-.252-.34-.271-.323-.29-.303-.307-.282-.323-.26-.338-.238-.35-.214-.363-.188-.372-.164-.382-.137-.389-.11L11 2.084l-.398-.056L10.2 2h-.4l-.402.028L9 2.084l-.395.083-.389.11-.381.137-.373.164-.363.188-.35.214-.338.237-.323.26-.307.283-.29.303-.27.323-.253.34-.231.358-.21.372-.014.026-.016.025-.017.024-.018.022-.02.022-.02.02-.021.02-.166.149-.157.16-.146.172-.137.182-.125.191-.113.2-.1.207-.089.213-.075.22-.01.03-.013.031-.014.03-.015.028-.018.027-.018.026-.02.025-.022.023-.023.022-.024.02-.025.019-.099.063-.069.051-.066.056-.063.06-.06.064-.055.068-.052.072-.048.075-.043.078-.038.081-.034.083-.03.086-.024.087-.019.089-.014.09-.009.09-.004.09.001.092.172 4.158.004.063.008.063.012.063.015.061.018.06.022.06.025.057.028.056.031.053.067.1.071.095.077.09.082.085.086.08.09.073.12.086.024.02.023.02.022.023.02.025.019.025.018.027.016.027.014.03.013.029.134.371.141.332c.105.213 2.472 2.173 2.472 2.173S7.438 18 10 18s3.79-.63 3.79-.63 2.368-1.96 2.473-2.173l.141-.332.134-.371.013-.03.015-.029.015-.027.018-.027.02-.025.02-.025.021-.022.023-.022.024-.02.12-.085.09-.073.087-.08.081-.085.077-.09.072-.095.066-.1.031-.053.028-.056.025-.058.022-.059.018-.06.015-.061.012-.063.008-.063.004-.063.172-4.158.001-.091-.004-.091Z"/><path d="M12.806 10.823h-.723c-.09 0-.164.083-.164.184v.56c0 .103-.036.2-.1.273l-.046.052a.324.324 0 0 1-.242.112H8.469a.325.325 0 0 1-.243-.112l-.046-.052a.411.411 0 0 1-.1-.272v-.56c0-.102-.073-.185-.164-.185h-.723c-.09 0-.164.083-.164.184v.813c0 .102.074.184.164.184h.545c.09 0 .178.041.242.113.064.072.1.17.1.273v.594c0 .111.08.202.18.202h3.48c.099 0 .18-.091.18-.202v-.594c0-.103.035-.2.1-.273a.325.325 0 0 1 .242-.113h.544c.09 0 .164-.082.164-.184v-.813c0-.101-.073-.184-.164-.184Z"/></svg>
